svg/color/ioex.svg

<?xml version="1.0" encoding="UTF-8" ?>
<!DOCTYPE svg PUBLIC "-//W3C//DTD SVG 1.1//EN" "http://www.w3.org/Graphics/SVG/1.1/DTD/svg11.dtd">
<svg width="250pt" height="169pt" viewBox="0 0 250 169" version="1.1" xmlns="http://www.w3.org/2000/svg">
<g id="#ffffffff">
<path fill="#ffffff" opacity="1.00" d=" M 0.00 0.00 L 250.00 0.00 L 250.00 169.00 L 0.00 169.00 L 0.00 0.00 M 143.20 43.49 C 137.81 50.01 132.96 57.01 127.93 63.82 C 132.59 69.88 136.86 76.25 141.79 82.10 C 151.28 69.14 160.96 56.31 170.51 43.40 C 161.41 43.46 152.29 43.22 143.20 43.49 M 74.96 43.77 C 79.33 49.80 83.79 55.75 88.38 61.62 L 88.34 61.87 C 91.82 66.41 95.18 71.03 98.68 75.55 C 100.40 77.92 102.14 80.28 103.88 82.64 C 105.82 82.64 107.76 82.63 109.71 82.62 C 112.76 82.58 115.82 82.82 118.86 82.52 C 124.27 82.68 129.69 82.65 135.10 82.67 C 135.98 82.66 137.75 82.64 138.63 82.63 C 130.24 71.27 121.75 59.97 113.36 48.61 C 111.54 46.21 109.92 42.63 106.19 43.69 C 104.00 43.76 101.81 43.78 99.63 43.78 C 95.59 43.75 91.56 43.76 87.53 43.73 C 83.34 43.77 79.15 43.73 74.96 43.77 M 102.92 85.22 C 101.89 86.72 100.85 88.20 99.80 89.68 C 97.51 92.68 95.27 95.71 93.04 98.74 C 90.60 101.99 88.18 105.25 85.76 108.51 C 82.00 113.59 78.20 118.64 74.44 123.73 C 85.13 123.75 95.83 123.77 106.52 123.70 C 107.91 124.01 109.59 123.88 110.25 122.40 C 119.43 109.85 128.90 97.51 137.99 84.89 C 137.15 84.86 135.47 84.80 134.63 84.77 L 134.39 85.09 C 123.91 84.81 113.37 84.50 102.92 85.22 M 127.95 103.26 C 128.72 104.41 129.51 105.55 130.31 106.69 C 131.91 108.84 133.55 110.97 135.13 113.15 C 136.80 115.37 138.45 117.61 140.11 119.85 C 141.08 121.14 142.06 122.44 143.03 123.74 C 152.19 123.72 161.36 123.77 170.52 123.72 C 165.94 117.62 161.41 111.49 156.85 105.39 C 155.22 103.16 153.57 100.95 151.91 98.75 C 150.30 96.56 148.67 94.38 147.05 92.20 C 145.25 89.81 143.48 87.40 141.73 84.98 C 136.95 90.93 132.61 97.21 127.95 103.26 Z" />
</g>
<g id="#d82925ff">
<path fill="#d82925" opacity="1.00" d=" M 143.20 43.49 C 152.29 43.22 161.41 43.46 170.51 43.40 C 160.96 56.31 151.28 69.14 141.79 82.10 C 136.86 76.25 132.59 69.88 127.93 63.82 C 132.96 57.01 137.81 50.01 143.20 43.49 Z" />
</g>
<g id="#f6c05bff">
<path fill="#f6c05b" opacity="1.00" d=" M 74.96 43.77 C 79.15 43.73 83.34 43.77 87.53 43.73 C 89.84 49.44 89.40 55.68 88.38 61.62 C 83.79 55.75 79.33 49.80 74.96 43.77 Z" />
</g>
<g id="#f7bb75ff">
<path fill="#f7bb75" opacity="1.00" d=" M 87.53 43.73 C 91.56 43.76 95.59 43.75 99.63 43.78 C 98.86 54.36 100.14 65.01 98.68 75.55 C 95.18 71.03 91.82 66.41 88.34 61.87 L 88.38 61.62 C 89.40 55.68 89.84 49.44 87.53 43.73 Z" />
</g>
<g id="#efa373ff">
<path fill="#efa373" opacity="1.00" d=" M 99.63 43.78 C 101.81 43.78 104.00 43.76 106.19 43.69 C 107.54 45.70 108.90 47.71 110.33 49.66 C 110.53 60.66 109.29 71.62 109.71 82.62 C 107.76 82.63 105.82 82.64 103.88 82.64 C 102.14 80.28 100.40 77.92 98.68 75.55 C 100.14 65.01 98.86 54.36 99.63 43.78 Z" />
</g>
<g id="#eaaa2bff">
<path fill="#eaaa2b" opacity="1.00" d=" M 106.19 43.69 C 109.92 42.63 111.54 46.21 113.36 48.61 C 121.75 59.97 130.24 71.27 138.63 82.63 C 137.75 82.64 135.98 82.66 135.10 82.67 C 131.34 77.69 127.55 72.74 123.81 67.74 C 119.45 61.62 114.83 55.69 110.33 49.66 C 108.90 47.71 107.54 45.70 106.19 43.69 Z" />
</g>
<g id="#e28467ff">
<path fill="#e28467" opacity="1.00" d=" M 110.33 49.66 C 114.83 55.69 119.45 61.62 123.81 67.74 C 122.27 72.15 122.29 76.83 122.48 81.43 C 121.27 81.81 120.07 82.17 118.86 82.52 C 115.82 82.82 112.76 82.58 109.71 82.62 C 109.29 71.62 110.53 60.66 110.33 49.66 Z" />
</g>
<g id="#d7635bff">
<path fill="#d7635b" opacity="1.00" d=" M 122.48 81.43 C 122.29 76.83 122.27 72.15 123.81 67.74 C 127.55 72.74 131.34 77.69 135.10 82.67 C 129.69 82.65 124.27 82.68 118.86 82.52 C 120.07 82.17 121.27 81.81 122.48 81.43 Z" />
</g>
<g id="#e28e47ff">
<path fill="#e28e47" opacity="1.00" d=" M 102.92 85.22 C 113.37 84.50 123.91 84.81 134.39 85.09 C 131.91 88.30 129.44 91.51 127.06 94.79 C 123.98 92.96 121.08 90.87 118.22 88.73 C 113.92 85.25 108.04 86.05 102.92 85.22 Z" />
</g>
<g id="#b82826ff">
<path fill="#b82826" opacity="1.00" d=" M 134.39 85.09 L 134.63 84.77 C 135.47 84.80 137.15 84.86 137.99 84.89 C 128.90 97.51 119.43 109.85 110.25 122.40 C 109.59 123.88 107.91 124.01 106.52 123.70 L 105.80 123.20 C 108.52 119.68 111.17 116.11 113.82 112.54 C 115.86 109.82 117.87 107.08 119.89 104.35 C 122.27 101.15 124.71 98.01 127.06 94.79 C 129.44 91.51 131.91 88.30 134.39 85.09 Z" />
</g>
<g id="#83296bff">
<path fill="#83296b" opacity="1.00" d=" M 127.95 103.26 C 132.61 97.21 136.95 90.93 141.73 84.98 C 143.48 87.40 145.25 89.81 147.05 92.20 C 141.05 96.52 135.48 101.41 130.31 106.69 C 129.51 105.55 128.72 104.41 127.95 103.26 Z" />
</g>
<g id="#da7248ff">
<path fill="#da7248" opacity="1.00" d=" M 99.80 89.68 C 100.85 88.20 101.89 86.72 102.92 85.22 C 108.04 86.05 113.92 85.25 118.22 88.73 C 121.08 90.87 123.98 92.96 127.06 94.79 C 124.71 98.01 122.27 101.15 119.89 104.35 C 112.89 99.88 106.44 94.64 99.80 89.68 Z" />
</g>
<g id="#d55b4aff">
<path fill="#d55b4a" opacity="1.00" d=" M 93.04 98.74 C 95.27 95.71 97.51 92.68 99.80 89.68 C 106.44 94.64 112.89 99.88 119.89 104.35 C 117.87 107.08 115.86 109.82 113.82 112.54 C 106.01 109.37 100.31 102.86 93.04 98.74 Z" />
</g>
<g id="#8e2663ff">
<path fill="#8e2663" opacity="1.00" d=" M 130.31 106.69 C 135.48 101.41 141.05 96.52 147.05 92.20 C 148.67 94.38 150.30 96.56 151.91 98.75 C 146.06 103.24 140.68 108.29 135.13 113.15 C 133.55 110.97 131.91 108.84 130.31 106.69 Z" />
</g>
<g id="#d45251ff">
<path fill="#d45251" opacity="1.00" d=" M 93.04 98.74 C 100.31 102.86 106.01 109.37 113.82 112.54 C 111.17 116.11 108.52 119.68 105.80 123.20 C 99.28 118.09 92.59 113.20 85.76 108.51 C 88.18 105.25 90.60 101.99 93.04 98.74 Z" />
</g>
<g id="#9a235cff">
<path fill="#9a235c" opacity="1.00" d=" M 135.13 113.15 C 140.68 108.29 146.06 103.24 151.91 98.75 C 153.57 100.95 155.22 103.16 156.85 105.39 C 150.78 109.59 144.96 114.25 140.11 119.85 C 138.45 117.61 136.80 115.37 135.13 113.15 Z" />
</g>
<g id="#a61f53ff">
<path fill="#a61f53" opacity="1.00" d=" M 140.11 119.85 C 144.96 114.25 150.78 109.59 156.85 105.39 C 161.41 111.49 165.94 117.62 170.52 123.72 C 161.36 123.77 152.19 123.72 143.03 123.74 C 142.06 122.44 141.08 121.14 140.11 119.85 Z" />
</g>
<g id="#d44957ff">
<path fill="#d44957" opacity="1.00" d=" M 74.44 123.73 C 78.20 118.64 82.00 113.59 85.76 108.51 C 92.59 113.20 99.28 118.09 105.80 123.20 L 106.52 123.70 C 95.83 123.77 85.13 123.75 74.44 123.73 Z" />
</g>
</svg>

<?xml version="1.0" encoding="utf-8"?>
<!-- Generator: Adobe Illustrator 26.0.3, SVG Export Plug-In . SVG Version: 6.00 Build 0)  -->
<svg version="1.1" id="Layer_1" xmlns="http://www.w3.org/2000/svg" xmlns:xlink="http://www.w3.org/1999/xlink" x="0px" y="0px"
	 viewBox="0 0 250 169" style="enable-background:new 0 0 250 169;" xml:space="preserve">
<style type="text/css">
	.st0{fill:#D82925;}
	.st1{fill:#F6C05B;}
	.st2{fill:#F7BB75;}
	.st3{fill:#EFA373;}
	.st4{fill:#EAAA2B;}
	.st5{fill:#E28467;}
	.st6{fill:#D7635B;}
	.st7{fill:#E28E47;}
	.st8{fill:#B82826;}
	.st9{fill:#83296B;}
	.st10{fill:#DA7248;}
	.st11{fill:#D55B4A;}
	.st12{fill:#8E2663;}
	.st13{fill:#D45251;}
	.st14{fill:#9A235C;}
	.st15{fill:#A61F53;}
	.st16{fill:#D44957;}
</style>
<g id="_x23_d82925ff">
	<path class="st0" d="M143.2,43.5c9.1-0.3,18.2,0,27.3-0.1c-9.5,12.9-19.2,25.7-28.7,38.7c-4.9-5.8-9.2-12.2-13.9-18.3
		C133,57,137.8,50,143.2,43.5z"/>
</g>
<g id="_x23_f6c05bff">
	<path class="st1" d="M75,43.8c4.2,0,8.4,0,12.6,0c2.3,5.7,1.9,12,0.8,17.9C83.8,55.8,79.3,49.8,75,43.8z"/>
</g>
<g id="_x23_f7bb75ff">
	<path class="st2" d="M87.5,43.7c4,0,8.1,0,12.1,0c-0.8,10.6,0.5,21.2-0.9,31.8c-3.5-4.5-6.9-9.1-10.3-13.7l0-0.2
		C89.4,55.7,89.8,49.4,87.5,43.7z"/>
</g>
<g id="_x23_efa373ff">
	<path class="st3" d="M99.6,43.8c2.2,0,4.4,0,6.6-0.1c1.3,2,2.7,4,4.1,6c0.2,11-1,22-0.6,33c-1.9,0-3.9,0-5.8,0
		c-1.7-2.4-3.5-4.7-5.2-7.1C100.1,65,98.9,54.4,99.6,43.8z"/>
</g>
<g id="_x23_eaaa2bff">
	<path class="st4" d="M106.2,43.7c3.7-1.1,5.3,2.5,7.2,4.9c8.4,11.4,16.9,22.7,25.3,34c-0.9,0-2.7,0-3.5,0c-3.8-5-7.6-9.9-11.3-14.9
		c-4.4-6.1-9-12-13.5-18.1C108.9,47.7,107.5,45.7,106.2,43.7z"/>
</g>
<g id="_x23_e28467ff">
	<path class="st5" d="M110.3,49.7c4.5,6,9.1,12,13.5,18.1c-1.5,4.4-1.5,9.1-1.3,13.7c-1.2,0.4-2.4,0.7-3.6,1.1
		c-3,0.3-6.1,0.1-9.2,0.1C109.3,71.6,110.5,60.7,110.3,49.7z"/>
</g>
<g id="_x23_d7635bff">
	<path class="st6" d="M122.5,81.4c-0.2-4.6-0.2-9.3,1.3-13.7c3.7,5,7.5,10,11.3,14.9c-5.4,0-10.8,0-16.2-0.2
		C120.1,82.2,121.3,81.8,122.5,81.4z"/>
</g>
<g id="_x23_e28e47ff">
	<path class="st7" d="M102.9,85.2c10.5-0.7,21-0.4,31.5-0.1c-2.5,3.2-4.9,6.4-7.3,9.7c-3.1-1.8-6-3.9-8.8-6.1
		C113.9,85.2,108,86.1,102.9,85.2z"/>
</g>
<g id="_x23_b82826ff">
	<path class="st8" d="M134.4,85.1l0.2-0.3c0.8,0,2.5,0.1,3.4,0.1c-9.1,12.6-18.6,25-27.7,37.5c-0.7,1.5-2.3,1.6-3.7,1.3l-0.7-0.5
		c2.7-3.5,5.4-7.1,8-10.7c2-2.7,4.1-5.5,6.1-8.2c2.4-3.2,4.8-6.3,7.2-9.6C129.4,91.5,131.9,88.3,134.4,85.1z"/>
</g>
<g id="_x23_83296bff">
	<path class="st9" d="M127.9,103.3c4.7-6.1,9-12.3,13.8-18.3c1.8,2.4,3.5,4.8,5.3,7.2c-6,4.3-11.6,9.2-16.7,14.5
		C129.5,105.6,128.7,104.4,127.9,103.3z"/>
</g>
<g id="_x23_da7248ff">
	<path class="st10" d="M99.8,89.7c1-1.5,2.1-3,3.1-4.5c5.1,0.8,11,0,15.3,3.5c2.9,2.1,5.8,4.2,8.8,6.1c-2.3,3.2-4.8,6.4-7.2,9.6
		C112.9,99.9,106.4,94.6,99.8,89.7z"/>
</g>
<g id="_x23_d55b4aff">
	<path class="st11" d="M93,98.7c2.2-3,4.5-6.1,6.8-9.1c6.6,5,13.1,10.2,20.1,14.7c-2,2.7-4,5.5-6.1,8.2
		C106,109.4,100.3,102.9,93,98.7z"/>
</g>
<g id="_x23_8e2663ff">
	<path class="st12" d="M130.3,106.7c5.2-5.3,10.7-10.2,16.7-14.5c1.6,2.2,3.2,4.4,4.9,6.6c-5.9,4.5-11.2,9.5-16.8,14.4
		C133.6,111,131.9,108.8,130.3,106.7z"/>
</g>
<g id="_x23_d45251ff">
	<path class="st13" d="M93,98.7c7.3,4.1,13,10.6,20.8,13.8c-2.7,3.6-5.3,7.1-8,10.7c-6.5-5.1-13.2-10-20-14.7
		C88.2,105.2,90.6,102,93,98.7z"/>
</g>
<g id="_x23_9a235cff">
	<path class="st14" d="M135.1,113.2c5.5-4.9,10.9-9.9,16.8-14.4c1.7,2.2,3.3,4.4,4.9,6.6c-6.1,4.2-11.9,8.9-16.7,14.5
		C138.4,117.6,136.8,115.4,135.1,113.2z"/>
</g>
<g id="_x23_a61f53ff">
	<path class="st15" d="M140.1,119.8c4.9-5.6,10.7-10.3,16.7-14.5c4.6,6.1,9.1,12.2,13.7,18.3c-9.2,0-18.3,0-27.5,0
		C142.1,122.4,141.1,121.1,140.1,119.8z"/>
</g>
<g id="_x23_d44957ff">
	<path class="st16" d="M74.4,123.7c3.8-5.1,7.6-10.1,11.3-15.2c6.8,4.7,13.5,9.6,20,14.7l0.7,0.5C95.8,123.8,85.1,123.8,74.4,123.7z
		"/>
</g>
</svg>
